icons/Color/24/gimp-prefs-image-title.svg

<svg height="24" viewBox="0 0 24 23.999998" width="24" xmlns="http://www.w3.org/2000/svg"><g transform="matrix(.99998643 0 0 .98524528 .179977 .177224)"><g fill-rule="evenodd"><rect fill="#eeeeec" height="23.351974" rx=".688328" ry=".717525" stroke="#888a85" stroke-width="1.007467" width="22.992886" x=".323434" y=".324151"/><rect fill="#204a87" height="2" rx=".125027" ry=".148181" width="18" x="3" y="2"/><rect fill="#888a85" height="2" rx=".125027" ry=".148181" width="18" x="3" y="20"/></g><path d="m6 7.9999995v3.0000005h7v-1h-5.9999999v-2.0000005h1.9999999l-2.5-2.9999995-2.5 2.9999995z" fill="#c00"/><path d="m6 16v-3h7v1h-5.9999999v2h1.9999999l-2.5 3-2.5-3z" fill="#c00"/></g></svg>

<?xml version="1.0" encoding="UTF-8" standalone="no"?>
<svg
   xmlns:dc="http://purl.org/dc/elements/1.1/"
   xmlns:cc="http://creativecommons.org/ns#"
   xmlns:rdf="http://www.w3.org/1999/02/22-rdf-syntax-ns#"
   xmlns:svg="http://www.w3.org/2000/svg"
   xmlns="http://www.w3.org/2000/svg"
   xmlns:sodipodi="http://sodipodi.sourceforge.net/DTD/sodipodi-0.dtd"
   xmlns:inkscape="http://www.inkscape.org/namespaces/inkscape"
   version="1.1"
   width="24"
   height="24"
   id="svg2"
   viewBox="0 0 24 23.999998"
   inkscape:version="0.92pre1 unknown"
   sodipodi:docname="gimp-prefs-image-title-24.svg">
  <sodipodi:namedview
     pagecolor="#ffffff"
     bordercolor="#666666"
     borderopacity="1"
     objecttolerance="10"
     gridtolerance="10"
     guidetolerance="10"
     inkscape:pageopacity="0"
     inkscape:pageshadow="2"
     inkscape:window-width="501"
     inkscape:window-height="405"
     id="namedview1700"
     showgrid="true"
     inkscape:zoom="9.021977"
     inkscape:cx="1.6271558"
     inkscape:cy="26.368387"
     inkscape:window-x="0"
     inkscape:window-y="27"
     inkscape:window-maximized="0"
     inkscape:current-layer="svg2"
     showguides="true">
    <inkscape:grid
       type="xygrid"
       id="grid3447" />
  </sodipodi:namedview>
  <metadata
     id="metadata90">
    <rdf:RDF>
      <cc:Work>
        <dc:format>image/svg+xml</dc:format>
        <dc:type
           rdf:resource="http://purl.org/dc/dcmitype/StillImage" />
        <dc:title />
        <dc:contributor>
          <cc:Agent>
            <dc:title>many unknown and unnamed, Andrew Chadwick, Alexandre Prokoudine, Aryeom Han, Benoit Touchette, Jakub Steiner, Jehan, Johannes Matschke, Kevin Payne, Klaus Staedtler, Marek Dvoroznak, Michael Natterer</dc:title>
          </cc:Agent>
        </dc:contributor>
        <dc:description>Enhanced, extended tango-art-libre for GIMP</dc:description>
      </cc:Work>
    </rdf:RDF>
  </metadata>
  <defs
     id="defs7386" />
  <g
     id="g3554"
     transform="matrix(0.99998643,0,0,0.98524528,0.17997655,0.17722367)">
    <g
       style="display:inline"
       id="g7390"
       transform="matrix(0.0150689,0,0,0.01732856,25.509102,20.816157)" />
    <rect
       ry="0.71752459"
       rx="0.68832797"
       y="0.32415125"
       x="0.32343352"
       height="23.351974"
       width="22.992886"
       id="rect7400-7"
       style="color:#000000;display:inline;overflow:visible;visibility:visible;opacity:1;fill:#eeeeec;fill-opacity:1;fill-rule:evenodd;stroke:#888a85;stroke-width:1.00746685;stroke-linecap:butt;stroke-linejoin:miter;stroke-miterlimit:4;stroke-dasharray:none;stroke-dashoffset:0;stroke-opacity:1;marker:none;marker-start:none;marker-mid:none;marker-end:none" />
    <rect
       ry="0.14818059"
       rx="0.12502746"
       y="2"
       x="3"
       height="2"
       width="18"
       id="rect7402-6"
       style="color:#000000;display:inline;overflow:visible;visibility:visible;opacity:1;fill:#204a87;fill-opacity:1;fill-rule:evenodd;stroke:none;stroke-width:1.39739501;stroke-linecap:butt;stroke-linejoin:miter;stroke-miterlimit:4;stroke-dasharray:none;stroke-dashoffset:0;stroke-opacity:1;marker:none;marker-start:none;marker-mid:none;marker-end:none" />
    <rect
       style="color:#000000;display:inline;overflow:visible;visibility:visible;opacity:1;fill:#888a85;fill-opacity:1;fill-rule:evenodd;stroke:none;stroke-width:1.39739501;stroke-linecap:butt;stroke-linejoin:miter;stroke-miterlimit:4;stroke-dasharray:none;stroke-dashoffset:0;stroke-opacity:1;marker:none;marker-start:none;marker-mid:none;marker-end:none"
       id="rect3584"
       width="18"
       height="2"
       x="3"
       y="20"
       rx="0.12502746"
       ry="0.14818059" />
    <path
       sodipodi:nodetypes="cccccccccc"
       inkscape:connector-curvature="0"
       style="color:#000000;display:inline;overflow:visible;visibility:visible;opacity:1;fill:#cc0000;fill-opacity:1;fill-rule:nonzero;stroke:none;stroke-width:0.69436514;stroke-linecap:butt;stroke-linejoin:miter;stroke-miterlimit:4;stroke-dasharray:none;stroke-dashoffset:0;stroke-opacity:1;marker:none;marker-start:none;marker-mid:none;marker-end:none"
       d="M 6,7.9999995 V 11 h 7 V 10 H 7.0000001 V 7.9999995 H 9 L 6.5,5 4,7.9999995 Z"
       id="path3576-9" />
    <path
       sodipodi:nodetypes="cccccccccc"
       inkscape:connector-curvature="0"
       style="color:#000000;display:inline;overflow:visible;visibility:visible;opacity:1;fill:#cc0000;fill-opacity:1;fill-rule:nonzero;stroke:none;stroke-width:0.69436514;stroke-linecap:butt;stroke-linejoin:miter;stroke-miterlimit:4;stroke-dasharray:none;stroke-dashoffset:0;stroke-opacity:1;marker:none;marker-start:none;marker-mid:none;marker-end:none"
       d="m 6,16 v -3 h 7 v 1 H 7.0000001 v 2 H 9 L 6.5,19 4,16 Z"
       id="path3576-9-5" />
  </g>
</svg>
